!!!COM: Music21
!!!OTL: march_Da-Slockit-Light
!!!OMV: march_Da-Slockit-Light
**kern
*clefG2
*k[f#c#]
*D:
*M4/4
=1
8f#L
8eJ
=
4.d
8f#
4a
4dd
=
8ff#L
8eeJ
8ddL
8cc#J
4dd
4a
=
4b
4dd
4a
4dd
=
8bL
8aJ
8gL
8f#J
8eL
8gJ
8f#L
8eJ
=
4.d
8f#
4a
4dd
=
8ff#L
8eeJ
8ddL
8cc#J
4dd
4a
!!linebreak:original
=
4b
4g
8aL
8gJ
8f#L
8eJ
=
[2d
4d]
4ryy
=||
*M4/4
8f#L
8eJ
=
4.d
8f#
4a
4dd
=
8ff#L
8eeJ
8ddL
8cc#J
4dd
4a
=
4b
4dd
4a
4dd
=
8bL
8aJ
8gL
8f#J
8eL
8gJ
8f#L
8eJ
!!linebreak:original
=
4.d
8f#
4a
4dd
=
8ff#L
8eeJ
8ddL
8cc#J
4dd
4a
=
4b
4g
8aL
8gJ
8f#L
8eJ
=
[2d
4d]
4ryy
=||
4gg
2.ryy
=
4ff#
4aa
4.ee
8cc#
=
4.dd
8ee
8ddL
8cc#J
8bL
8aJ
=
4ff#
4aa
4ee
4gg#X
!!linebreak:original
=
[2aa
4aa]
4ggn
=
4ff#
4aa
4.ee
8cc#
=
4.dd
8ee
8ddL
8cc#J
8bL
8aJ
=
4b
4g
8aL
8gJ
8f#L
8eJ
=
[2d
4.d]
8gg
=
4ff#
4aa
4.ee
8cc#
=
4.dd
8ee
8ddL
8cc#J
8bL
8aJ
!!linebreak:original
=
4b
4dd
4a
4dd
=
8bL
8aJ
8gL
8f#J
8eL
8gJ
8f#L
8eJ
=
4.d
8f#
4a
4dd
=
8ff#L
8eeJ
8ddL
8cc#J
4dd
4a
=
4b
4g
8aL
8gJ
8f#L
8eJ
=
[2d
4d]
4ryy
=||
*-
